src/images/backend.svg

<svg width="81" height="81" viewBox="0 0 81 81" fill="none" xmlns="http://www.w3.org/2000/svg">
<path d="M14.175 8.26868C10.8256 8.26868 8.09998 10.9943 8.09998 14.3437C8.09998 17.693 10.8256 20.4187 14.175 20.4187C17.5243 20.4187 20.25 17.693 20.25 14.3437C20.25 10.9943 17.5243 8.26868 14.175 8.26868ZM14.175 17.7187C12.3147 17.7187 10.8 16.2053 10.8 14.3437C10.8 12.482 12.3147 10.9687 14.175 10.9687C16.0353 10.9687 17.55 12.482 17.55 14.3437C17.55 16.2053 16.0353 17.7187 14.175 17.7187Z" fill="#42DFF4"/>
<path d="M67.5 13.6687C68.2456 13.6687 68.85 13.0643 68.85 12.3187C68.85 11.5732 68.2456 10.9688 67.5 10.9688C66.7544 10.9688 66.15 11.5732 66.15 12.3187C66.15 13.0643 66.7544 13.6687 67.5 13.6687Z" fill="#42DFF4"/>
<path d="M62.1 13.6687C62.8456 13.6687 63.45 13.0643 63.45 12.3187C63.45 11.5732 62.8456 10.9688 62.1 10.9688C61.3544 10.9688 60.75 11.5732 60.75 12.3187C60.75 13.0643 61.3544 13.6687 62.1 13.6687Z" fill="#42DFF4"/>
<path d="M70.2 17.7187C70.9456 17.7187 71.55 17.1143 71.55 16.3687C71.55 15.6231 70.9456 15.0187 70.2 15.0187C69.4544 15.0187 68.85 15.6231 68.85 16.3687C68.85 17.1143 69.4544 17.7187 70.2 17.7187Z" fill="#42DFF4"/>
<path d="M64.8 17.7187C65.5455 17.7187 66.15 17.1143 66.15 16.3687C66.15 15.6231 65.5455 15.0187 64.8 15.0187C64.0544 15.0187 63.45 15.6231 63.45 16.3687C63.45 17.1143 64.0544 17.7187 64.8 17.7187Z" fill="#42DFF4"/>
<path d="M56.7 13.6687C57.4456 13.6687 58.05 13.0643 58.05 12.3187C58.05 11.5732 57.4456 10.9688 56.7 10.9688C55.9544 10.9688 55.35 11.5732 55.35 12.3187C55.35 13.0643 55.9544 13.6687 56.7 13.6687Z" fill="#42DFF4"/>
<path d="M59.4 17.7187C60.1456 17.7187 60.75 17.1143 60.75 16.3687C60.75 15.6231 60.1456 15.0187 59.4 15.0187C58.6545 15.0187 58.05 15.6231 58.05 16.3687C58.05 17.1143 58.6545 17.7187 59.4 17.7187Z" fill="#42DFF4"/>
<path d="M51.2999 13.6687C52.0455 13.6687 52.6499 13.0643 52.6499 12.3187C52.6499 11.5732 52.0455 10.9688 51.2999 10.9688C50.5544 10.9688 49.95 11.5732 49.95 12.3187C49.95 13.0643 50.5544 13.6687 51.2999 13.6687Z" fill="#42DFF4"/>
<path d="M54 17.7187C54.7456 17.7187 55.35 17.1143 55.35 16.3687C55.35 15.6231 54.7456 15.0187 54 15.0187C53.2544 15.0187 52.65 15.6231 52.65 16.3687C52.65 17.1143 53.2544 17.7187 54 17.7187Z" fill="#42DFF4"/>
<path d="M45.9 13.6687C46.6456 13.6687 47.25 13.0643 47.25 12.3187C47.25 11.5732 46.6456 10.9688 45.9 10.9688C45.1545 10.9688 44.55 11.5732 44.55 12.3187C44.55 13.0643 45.1545 13.6687 45.9 13.6687Z" fill="#42DFF4"/>
<path d="M48.6 17.7187C49.3456 17.7187 49.95 17.1143 49.95 16.3687C49.95 15.6231 49.3456 15.0187 48.6 15.0187C47.8544 15.0187 47.25 15.6231 47.25 16.3687C47.25 17.1143 47.8544 17.7187 48.6 17.7187Z" fill="#42DFF4"/>
<path d="M14.175 33.9187C10.8256 33.9187 8.09998 36.6444 8.09998 39.9937C8.09998 43.3431 10.8256 46.0687 14.175 46.0687C17.5243 46.0687 20.25 43.3431 20.25 39.9937C20.25 36.6444 17.5243 33.9187 14.175 33.9187ZM14.175 43.3687C12.3147 43.3687 10.8 41.8554 10.8 39.9937C10.8 38.1321 12.3147 36.6187 14.175 36.6187C16.0353 36.6187 17.55 38.1321 17.55 39.9937C17.55 41.8554 16.0353 43.3687 14.175 43.3687Z" fill="#42DFF4"/>
<path d="M14.175 59.5687C10.8256 59.5687 8.09998 62.2944 8.09998 65.6437C8.09998 68.9931 10.8256 71.7187 14.175 71.7187C17.5243 71.7187 20.25 68.9931 20.25 65.6437C20.25 62.2944 17.5243 59.5687 14.175 59.5687ZM14.175 69.0187C12.3147 69.0187 10.8 67.5054 10.8 65.6437C10.8 63.7821 12.3147 62.2687 14.175 62.2687C16.0353 62.2687 17.55 63.7821 17.55 65.6437C17.55 67.5054 16.0353 69.0187 14.175 69.0187Z" fill="#42DFF4"/>
<path d="M81 22.2979V6.3895C81 2.95915 78.2095 0.168701 74.7792 0.168701H6.2208C2.79045 0.168701 0 2.95915 0 6.3895V22.2966C0 24.2797 0.94905 26.028 2.39895 27.1674C0.94905 28.3081 0 30.0577 0 32.0395V47.9466C0 49.9297 0.94905 51.678 2.39895 52.8174C0.94905 53.9581 0 55.7077 0 57.6895V73.5965C0 77.0269 2.79045 79.8174 6.2208 79.8174H43.8521C47.4728 80.4843 51.4417 80.8299 55.35 80.8299C67.0572 80.8299 79.4016 77.7937 80.8583 71.9833C80.9487 71.8037 81 71.5985 81 71.3812V59.2312V58.725V58.2187V47.0812V46.575V46.0687V34.425V33.9187C81 33.7162 80.9501 33.5286 80.8704 33.3571C80.4019 31.3807 78.6456 29.7162 76.0617 28.3824C78.8778 27.7897 81 25.2882 81 22.2979ZM2.7 47.9479V32.0395C2.7 30.0982 4.2795 28.5187 6.2208 28.5187H34.3818C31.9397 29.8296 30.2819 31.4469 29.8296 33.3571C29.75 33.5299 29.7 33.7162 29.7 33.9187V34.425V46.0687V46.575V47.0812V51.4687H6.2208C4.2795 51.4687 2.7 49.8892 2.7 47.9479ZM33.2451 39.663C33.3059 39.7021 33.3707 39.7412 33.4328 39.7804C33.6703 39.9289 33.9174 40.0747 34.1753 40.2178C34.2495 40.2583 34.3211 40.3002 34.3953 40.3393C34.7099 40.5081 35.0365 40.6728 35.3768 40.8307C35.4308 40.8564 35.4888 40.8806 35.5428 40.9049C35.8411 41.0413 36.1476 41.1723 36.4635 41.3005C36.5567 41.3383 36.6484 41.3761 36.7416 41.4126C37.1142 41.5584 37.4935 41.7015 37.8864 41.8365C37.908 41.8432 37.9296 41.85 37.9512 41.8581C38.3265 41.9863 38.7126 42.1092 39.1054 42.228C39.2108 42.2604 39.3174 42.2914 39.424 42.3225C39.8129 42.4359 40.2071 42.5466 40.6107 42.6519C40.6431 42.66 40.6742 42.6694 40.7066 42.6775C41.1413 42.7896 41.5854 42.8935 42.0363 42.9948C42.1497 43.0204 42.2645 43.0447 42.3779 43.069C42.764 43.1527 43.1541 43.2324 43.5483 43.308C43.6266 43.3228 43.7049 43.339 43.7832 43.3539C44.2463 43.4403 44.7147 43.5199 45.1885 43.5955C45.3006 43.6131 45.4153 43.6306 45.5274 43.6482C45.9202 43.7089 46.3158 43.7656 46.7154 43.8183C46.8248 43.8331 46.9328 43.848 47.0434 43.8615C47.5268 43.9222 48.0128 43.9789 48.5028 44.0302C48.6014 44.041 48.7012 44.0491 48.7998 44.0586C49.2115 44.0991 49.626 44.1355 50.0405 44.1693C50.166 44.1787 50.2902 44.1895 50.4158 44.199C50.9112 44.2354 51.4094 44.2678 51.9075 44.2935C51.9777 44.2975 52.0493 44.2989 52.1208 44.3029C52.5596 44.3245 52.9996 44.3407 53.4398 44.3529C53.572 44.3569 53.7044 44.361 53.838 44.3637C54.3416 44.3745 54.8451 44.3826 55.3473 44.3826C55.8495 44.3826 56.3531 44.3745 56.8566 44.3637C56.9889 44.361 57.1212 44.3569 57.2548 44.3529C57.695 44.3407 58.1337 44.3245 58.5738 44.3029C58.6454 44.2989 58.7156 44.2975 58.7871 44.2935C59.2853 44.2678 59.7834 44.2354 60.2789 44.199C60.4044 44.1895 60.5286 44.18 60.6542 44.1693C61.07 44.1368 61.4831 44.0991 61.8948 44.0586C61.9934 44.0491 62.0933 44.0397 62.1918 44.0302C62.6819 43.9789 63.1679 43.9236 63.6511 43.8615C63.7605 43.848 63.8699 43.8331 63.9792 43.8183C64.3774 43.7656 64.7744 43.7089 65.1672 43.6482C65.2806 43.6306 65.394 43.6144 65.5061 43.5955C65.9799 43.5199 66.4483 43.4403 66.9114 43.3539C66.9911 43.339 67.068 43.3228 67.1463 43.308C67.5418 43.2324 67.932 43.1527 68.3167 43.069C68.4315 43.0434 68.5449 43.0191 68.6583 42.9948C69.1079 42.8935 69.5534 42.7896 69.9881 42.6775C70.0204 42.6694 70.0515 42.66 70.0839 42.6519C70.4876 42.5479 70.8818 42.4372 71.2706 42.3225C71.3772 42.2914 71.4838 42.2604 71.5891 42.228C71.982 42.1092 72.3681 41.9863 72.7434 41.8581C72.765 41.8513 72.7866 41.8446 72.8082 41.8365C73.201 41.7001 73.5817 41.5584 73.953 41.4126C74.0475 41.3761 74.1393 41.3383 74.2311 41.3005C74.547 41.1723 74.8534 41.0413 75.1518 40.9049C75.2072 40.8793 75.2639 40.8564 75.3178 40.8307C75.6581 40.6728 75.9834 40.5081 76.2993 40.3393C76.3749 40.2988 76.4464 40.2583 76.5193 40.2178C76.7758 40.0761 77.0229 39.9303 77.2618 39.7804C77.324 39.7412 77.3887 39.7034 77.4495 39.663C77.729 39.4821 77.9936 39.2957 78.2447 39.104C78.2608 39.0919 78.2798 39.0811 78.296 39.069V45.8028C78.2635 45.9594 78.242 46.1186 78.2676 46.2793C78.2865 46.3778 78.3 46.4751 78.3 46.575C78.3 46.7235 78.2582 46.8747 78.2217 47.0245C78.1934 47.1406 78.1569 47.258 78.1083 47.3741C78.0651 47.4754 78.0111 47.578 77.9517 47.6793C77.8937 47.7805 77.8302 47.8831 77.7573 47.9844C77.6534 48.1248 77.5359 48.2652 77.4023 48.4056C77.3523 48.4595 77.3024 48.5136 77.2484 48.5676C74.3904 51.3324 65.9569 53.8299 55.3513 53.8299C44.7525 53.8299 36.3231 51.3351 33.4598 48.5716C33.4003 48.5122 33.3463 48.4542 33.2924 48.3948C33.1655 48.2598 33.0507 48.1248 32.9508 47.9898C32.8739 47.8831 32.8064 47.7765 32.7456 47.6685C32.6903 47.5726 32.639 47.4768 32.5971 47.3796C32.5444 47.2567 32.508 47.1352 32.4783 47.0137C32.4419 46.8679 32.4 46.7208 32.4 46.575C32.4 46.4791 32.4122 46.3833 32.4284 46.2887C32.4567 46.1133 32.4392 45.9378 32.4 45.769V39.0676C32.4162 39.0798 32.4351 39.0906 32.4513 39.1027C32.701 39.2944 32.9656 39.4807 33.2451 39.663ZM78.1069 59.5242C78.0638 59.6254 78.0098 59.728 77.9504 59.8293C77.8923 59.9305 77.8288 60.0331 77.756 60.1343C77.652 60.2747 77.5346 60.4151 77.4009 60.5555C77.351 60.6096 77.301 60.6636 77.247 60.7176C74.3891 63.4824 65.9556 65.9799 55.35 65.9799C44.7512 65.9799 36.3218 63.4851 33.4584 60.7216C33.399 60.6622 33.345 60.6042 33.291 60.5448C33.1641 60.4098 33.0494 60.2748 32.9495 60.1398C32.8725 60.0331 32.805 59.9265 32.7443 59.8185C32.6889 59.7226 32.6376 59.6268 32.5958 59.5296C32.5431 59.4067 32.5066 59.2852 32.4769 59.1637C32.4459 59.0368 32.4135 58.9086 32.4095 58.7817V58.6197C32.4149 58.5589 32.4176 58.4981 32.427 58.4374C32.4459 58.3213 32.4202 58.2079 32.4081 58.0932L32.4 51.4687V51.2176C32.454 51.2595 32.5174 51.2986 32.5742 51.3391C32.7443 51.466 32.9225 51.5902 33.1047 51.7131C33.2532 51.8116 33.4071 51.9088 33.5637 52.006C33.8054 52.1545 34.0484 52.3017 34.3076 52.4434C34.3102 52.4448 34.313 52.4461 34.3143 52.4474C37.1304 53.9824 41.0022 55.0908 45.2831 55.7617C45.3154 55.7671 45.3479 55.7712 45.3803 55.7766C46.7613 55.9912 48.1788 56.1586 49.6206 56.2815C49.9271 56.3071 50.2322 56.3341 50.5413 56.3557C50.8424 56.3773 51.1434 56.3962 51.4458 56.4124C51.8535 56.4354 52.2612 56.4556 52.6689 56.4718C52.9065 56.4813 53.1441 56.4921 53.383 56.4988C54.0405 56.5177 54.6966 56.5312 55.3513 56.5312C56.0047 56.5312 56.6609 56.5191 57.3156 56.5002C57.5559 56.4934 57.7948 56.4826 58.0351 56.4732C58.4401 56.457 58.8438 56.4381 59.2475 56.4151C59.5526 56.3976 59.8563 56.3787 60.16 56.3571C60.4638 56.3354 60.7635 56.3098 61.0659 56.2842C62.5212 56.1613 63.9522 55.9912 65.3454 55.7752C65.3657 55.7725 65.3873 55.7685 65.4075 55.7658C70.0853 55.034 74.2689 53.7772 77.1269 52.0141C77.2821 51.9183 77.436 51.8224 77.5832 51.7239C77.7654 51.6024 77.9436 51.4781 78.1124 51.3512C78.1731 51.3067 78.242 51.2649 78.3014 51.2189V57.9528C78.269 58.1094 78.2474 58.2687 78.273 58.4293C78.2865 58.5279 78.3 58.6251 78.3 58.725C78.3 58.8735 78.2582 59.0247 78.2217 59.1745C78.192 59.2906 78.1569 59.4081 78.1069 59.5242ZM6.2208 77.1187C4.2795 77.1187 2.7 75.5392 2.7 73.5979V57.6895C2.7 55.7482 4.2795 54.1687 6.2208 54.1687H29.7V58.2187V58.725V59.2312V71.3812V72.7312H30.0996C30.1212 72.7812 30.1523 72.8298 30.1766 72.8797C30.2238 72.981 30.2764 73.0795 30.3305 73.1794C30.4411 73.3792 30.5667 73.5763 30.7058 73.7707C30.8435 73.9665 30.9987 74.1555 31.1634 74.3431C31.2471 74.4376 31.3308 74.5308 31.4212 74.6239C31.9383 75.1572 32.5593 75.6567 33.2761 76.1238C33.3004 76.14 33.3261 76.1562 33.3517 76.1724C33.8702 76.5058 34.4304 76.8217 35.0365 77.12H6.2208V77.1187ZM78.3 71.0356C78.2892 71.0775 78.2797 71.1207 78.273 71.1625C77.7208 74.5281 68.3775 78.1312 55.35 78.1312C51.1934 78.1312 47.4188 77.7627 44.1774 77.1538L44.1787 77.143C37.4652 75.8727 33.75 73.7275 32.7105 71.9185C32.7091 71.9172 32.7078 71.9158 32.7078 71.9131C32.6606 71.8294 32.6268 71.747 32.5904 71.6661C32.5202 71.4973 32.454 71.3299 32.427 71.1625L32.4162 63.3798C32.4648 63.4176 32.5229 63.4527 32.5728 63.4905C32.7429 63.6174 32.9211 63.7416 33.1034 63.8644C33.2519 63.963 33.4058 64.0602 33.5624 64.1573C33.804 64.3058 34.047 64.453 34.3062 64.5947C34.3089 64.5961 34.3116 64.5975 34.313 64.5988C37.1291 66.1338 41.0009 67.2421 45.2817 67.9131C45.3141 67.9184 45.3465 67.9225 45.3789 67.9279C46.7599 68.1426 48.1775 68.31 49.6193 68.4328C49.9257 68.4585 50.2308 68.4855 50.54 68.507C50.841 68.5286 51.142 68.5475 51.4445 68.5638C51.8521 68.5867 52.2599 68.607 52.6676 68.6232C52.9052 68.6326 53.1427 68.6434 53.3817 68.6502C54.0392 68.6691 54.6953 68.6825 55.35 68.6825C56.0034 68.6825 56.6595 68.6704 57.3143 68.6515C57.5546 68.6448 57.7935 68.6339 58.0338 68.6245C58.4388 68.6083 58.8425 68.5894 59.2461 68.5665C59.5512 68.5489 59.8549 68.53 60.1587 68.5084C60.4625 68.4868 60.7622 68.4612 61.0646 68.4355C62.5199 68.3127 63.9509 68.1426 65.344 67.9266C65.3643 67.9239 65.3859 67.9198 65.4062 67.9171C70.0839 67.1854 74.2676 65.9286 77.1255 64.1655C77.2808 64.0696 77.4346 63.9738 77.5818 63.8752C77.764 63.7537 77.9423 63.6295 78.111 63.5026C78.1718 63.4581 78.2406 63.4162 78.3 63.3703V71.0356ZM78.3 34.425C78.3 37.8499 68.4842 41.6812 55.35 41.6812C42.2145 41.6812 32.4 37.8499 32.4 34.425C32.4 34.2522 32.4419 34.0767 32.4918 33.9011C32.5458 33.727 32.6187 33.5488 32.7267 33.3652C32.7308 33.3571 32.7348 33.349 32.7388 33.3409C33.1884 32.5903 34.0942 31.783 35.4888 31.0041C35.5482 30.9717 35.609 30.9393 35.6697 30.9069C35.9087 30.7773 36.1611 30.649 36.4271 30.5221C36.7362 30.3777 37.0535 30.2332 37.3937 30.0942C37.4598 30.0658 37.5287 30.0388 37.5975 30.0118C39.1662 29.3868 41.0562 28.8319 43.1838 28.3783C43.8494 28.2379 44.5271 28.1056 45.2237 27.9895C45.4086 27.9585 45.5895 27.9261 45.7772 27.8964C51.8211 26.9649 58.8722 26.9649 64.9161 27.8964C65.1065 27.9261 65.29 27.9598 65.4777 27.9909C66.1702 28.1056 66.8439 28.2366 67.5041 28.377C74.0853 29.7783 78.3 32.1853 78.3 34.425ZM78.3 22.2979C78.3 24.2392 76.7205 25.8187 74.7792 25.8187H68.5287C68.4504 25.8012 68.364 25.7904 68.2857 25.7728C67.4001 25.5811 66.4889 25.4097 65.5574 25.2612C65.4669 25.2477 65.3764 25.2328 65.286 25.2193C62.0987 24.7239 58.6967 24.4687 55.35 24.4687C52.0033 24.4687 48.604 24.7239 45.4167 25.2193C45.3235 25.2328 45.2318 25.2477 45.1386 25.2612C44.2098 25.4097 43.3013 25.5811 42.4184 25.7715C42.3387 25.789 42.2496 25.7998 42.1699 25.8174H6.2208C4.2795 25.8187 2.7 24.2392 2.7 22.2979V6.3895C2.7 4.4482 4.2795 2.8687 6.2208 2.8687H74.7778C76.7205 2.8687 78.3 4.4482 78.3 6.3895V22.2979Z" fill="#42DFF4"/>
</svg>

<svg width="81" height="81" fill="none" xmlns="http://www.w3.org/2000/svg"><path d="M14.175 8.269A6.082 6.082 0 0 0 8.1 14.344a6.082 6.082 0 0 0 6.075 6.075 6.082 6.082 0 0 0 6.075-6.075 6.082 6.082 0 0 0-6.075-6.075zm0 9.45a3.379 3.379 0 0 1-3.375-3.375 3.379 3.379 0 0 1 3.375-3.375 3.379 3.379 0 0 1 3.375 3.375 3.379 3.379 0 0 1-3.375 3.375zM67.5 13.669a1.35 1.35 0 1 0 0-2.7 1.35 1.35 0 0 0 0 2.7zM62.1 13.669a1.35 1.35 0 1 0 0-2.7 1.35 1.35 0 0 0 0 2.7zM70.2 17.719a1.35 1.35 0 1 0 0-2.7 1.35 1.35 0 0 0 0 2.7zM64.8 17.719a1.35 1.35 0 1 0 0-2.7 1.35 1.35 0 0 0 0 2.7zM56.7 13.669a1.35 1.35 0 1 0 0-2.7 1.35 1.35 0 0 0 0 2.7zM59.4 17.719a1.35 1.35 0 1 0 0-2.7 1.35 1.35 0 0 0 0 2.7zM51.3 13.669a1.35 1.35 0 1 0 0-2.7 1.35 1.35 0 0 0 0 2.7zM54 17.719a1.35 1.35 0 1 0 0-2.7 1.35 1.35 0 0 0 0 2.7zM45.9 13.669a1.35 1.35 0 1 0 0-2.7 1.35 1.35 0 0 0 0 2.7zM48.6 17.719a1.35 1.35 0 1 0 0-2.7 1.35 1.35 0 0 0 0 2.7zM14.175 33.919A6.082 6.082 0 0 0 8.1 39.994a6.082 6.082 0 0 0 6.075 6.075 6.082 6.082 0 0 0 6.075-6.075 6.082 6.082 0 0 0-6.075-6.075zm0 9.45a3.379 3.379 0 0 1-3.375-3.375 3.379 3.379 0 0 1 3.375-3.375 3.379 3.379 0 0 1 3.375 3.375 3.379 3.379 0 0 1-3.375 3.375zM14.175 59.569A6.082 6.082 0 0 0 8.1 65.644a6.082 6.082 0 0 0 6.075 6.075 6.082 6.082 0 0 0 6.075-6.075 6.082 6.082 0 0 0-6.075-6.075zm0 9.45a3.379 3.379 0 0 1-3.375-3.375 3.379 3.379 0 0 1 3.375-3.375 3.379 3.379 0 0 1 3.375 3.375 3.379 3.379 0 0 1-3.375 3.375z" fill="#42DFF4"/><path d="M81 22.298V6.39C81 2.96 78.21.168 74.78.168H6.22C2.79.169 0 2.959 0 6.389v15.908c0 1.983.949 3.731 2.399 4.87C.949 28.308 0 30.057 0 32.04v15.908c0 1.983.949 3.731 2.399 4.87C.949 53.958 0 55.707 0 57.69v15.907c0 3.43 2.79 6.22 6.22 6.22h37.632c3.62.667 7.59 1.013 11.498 1.013 11.707 0 24.052-3.036 25.508-8.847.09-.18.142-.385.142-.602V33.92c0-.203-.05-.39-.13-.562-.468-1.976-2.224-3.64-4.808-4.975C78.878 27.79 81 25.288 81 22.298zM2.7 47.948V32.039c0-1.94 1.58-3.52 3.52-3.52h28.162c-2.442 1.31-4.1 2.928-4.552 4.838-.08.173-.13.36-.13.562v17.55H6.22a3.525 3.525 0 0 1-3.52-3.521zm30.545-8.285c.06.04.126.078.188.117.237.149.484.295.742.438.075.04.146.082.22.121.315.17.641.334.982.492l.166.074c.298.136.605.267.92.395l.279.113a28.92 28.92 0 0 0 2.363.815l.319.094c.389.114.783.225 1.187.33l.096.026c.434.112.878.216 1.33.317l.34.074c.387.084.777.163 1.171.239l.235.046c.463.086.932.166 1.405.242l.34.052c.392.06.788.118 1.187.17l.328.044c.484.06.97.117 1.46.168.098.011.198.02.297.029.412.04.826.077 1.24.11l.376.03c.495.036.993.069 1.492.095.07.004.141.005.213.009.439.022.879.038 1.319.05a70.441 70.441 0 0 0 1.907.03c.502 0 1.006-.009 1.51-.02.132-.002.264-.006.398-.01.44-.012.879-.029 1.319-.05.071-.004.142-.005.213-.01a68.652 68.652 0 0 0 3.108-.234l.297-.029c.49-.051.976-.106 1.46-.169a55.282 55.282 0 0 0 1.516-.213l.338-.052c.474-.076.942-.156 1.405-.242l.235-.046c.396-.076.786-.155 1.17-.239.115-.026.229-.05.342-.074.45-.101.895-.205 1.33-.317l.096-.026c.404-.104.798-.215 1.187-.33a34.194 34.194 0 0 0 1.473-.464c.021-.007.043-.013.064-.022.393-.136.774-.278 1.145-.423l.278-.112c.316-.129.622-.26.92-.396.056-.026.113-.049.167-.074.34-.158.665-.323.981-.492.076-.04.147-.08.22-.121.257-.142.504-.288.743-.438.062-.039.127-.077.188-.117.279-.18.544-.367.795-.559l.051-.035v6.734a1.315 1.315 0 0 0-.028.476c.019.099.032.196.032.296 0 .148-.042.3-.078.45a2.335 2.335 0 0 1-.114.35 2.723 2.723 0 0 1-.156.304 3.488 3.488 0 0 1-.195.305c-.104.14-.221.281-.355.422-.05.053-.1.108-.154.162-2.858 2.764-11.291 5.262-21.897 5.262-10.599 0-19.028-2.495-21.891-5.258a4.86 4.86 0 0 1-.168-.177 3.397 3.397 0 0 1-.547-.726 2.813 2.813 0 0 1-.148-.29 2.304 2.304 0 0 1-.119-.365c-.036-.146-.078-.293-.078-.439 0-.096.012-.192.028-.286.029-.176.011-.351-.028-.52v-6.701l.051.035c.25.191.515.378.794.56zm44.862 19.861a2.713 2.713 0 0 1-.157.305 3.519 3.519 0 0 1-.194.305c-.104.14-.221.281-.355.422-.05.054-.1.108-.154.162-2.858 2.764-11.291 5.262-21.897 5.262-10.599 0-19.028-2.495-21.892-5.258a5.04 5.04 0 0 1-.167-.177 3.358 3.358 0 0 1-.547-.726 2.774 2.774 0 0 1-.148-.29 2.305 2.305 0 0 1-.12-.365c-.03-.127-.063-.255-.066-.382v-.162c.005-.061.008-.122.017-.183.019-.116-.007-.23-.019-.344L32.4 51.47v-.251c.054.041.117.08.174.121a13.714 13.714 0 0 0 .99.667c.241.148.484.296.744.437l.006.004c2.816 1.535 6.688 2.644 10.97 3.315l.096.015c1.381.214 2.799.382 4.24.505.307.025.612.052.921.074a73.593 73.593 0 0 0 2.128.116c.238.01.475.02.714.027.657.019 1.314.032 1.968.032.654 0 1.31-.012 1.965-.03.24-.008.479-.018.72-.028a71.648 71.648 0 0 0 2.124-.116c.304-.022.604-.047.906-.073a62.06 62.06 0 0 0 4.28-.509c.02-.002.041-.006.061-.01 4.678-.731 8.862-1.988 11.72-3.75.155-.097.309-.193.456-.291.182-.122.36-.246.53-.373.06-.044.129-.086.188-.132v6.734a1.317 1.317 0 0 0-.028.476c.014.099.027.196.027.296 0 .148-.042.3-.078.45-.03.116-.065.233-.115.35zM6.22 77.12A3.525 3.525 0 0 1 2.7 73.598V57.69c0-1.942 1.58-3.521 3.52-3.521H29.7V72.73h.4c.021.05.052.099.077.149a5.584 5.584 0 0 0 .529.89 8.235 8.235 0 0 0 .715.853 10.733 10.733 0 0 0 1.855 1.5c.024.017.05.033.076.05.518.333 1.078.649 1.684.947H6.221v-.001zM78.3 71.036c-.01.041-.02.085-.027.126-.552 3.366-9.895 6.97-22.923 6.97-4.157 0-7.931-.37-11.173-.978l.002-.011c-6.714-1.27-10.429-3.415-11.468-5.225-.002 0-.003-.002-.003-.005-.047-.084-.081-.166-.118-.247a2.305 2.305 0 0 1-.163-.504l-.01-7.782c.048.038.106.073.156.11a13.533 13.533 0 0 0 .99.667c.241.149.484.296.743.438.003.001.006.002.007.004 2.816 1.535 6.688 2.643 10.969 3.314l.097.015c1.38.215 2.799.382 4.24.505.307.025.612.052.921.074a74.637 74.637 0 0 0 2.128.116 68.526 68.526 0 0 0 2.682.06c.653 0 1.31-.013 1.964-.032.24-.006.48-.017.72-.026a72.644 72.644 0 0 0 2.125-.117c.303-.021.603-.047.906-.072a61.988 61.988 0 0 0 4.279-.51l.062-.009c4.678-.732 8.862-1.988 11.72-3.752.155-.095.309-.191.456-.29.182-.121.36-.245.529-.372.06-.045.13-.087.189-.133v7.666zm0-36.611c0 3.425-9.816 7.256-22.95 7.256-13.136 0-22.95-3.831-22.95-7.256 0-.173.042-.348.092-.524.054-.174.127-.352.235-.536l.012-.024c.45-.75 1.355-1.558 2.75-2.337l.18-.097c.24-.13.492-.258.758-.385.31-.144.627-.289.967-.428.066-.028.135-.055.203-.082 1.57-.625 3.46-1.18 5.587-1.634.665-.14 1.343-.272 2.04-.389.185-.03.366-.063.553-.093 6.044-.931 13.095-.931 19.14 0 .19.03.373.064.56.095.693.115 1.367.246 2.027.386 6.581 1.401 10.796 3.808 10.796 6.048zm0-12.127c0 1.941-1.58 3.52-3.52 3.52h-6.251c-.079-.017-.165-.028-.243-.045a50.446 50.446 0 0 0-2.729-.512l-.271-.042a65.496 65.496 0 0 0-9.936-.75 65.46 65.46 0 0 0-9.933.75c-.093.014-.185.029-.278.042-.93.149-1.838.32-2.72.51-.08.018-.17.029-.25.046H6.222a3.523 3.523 0 0 1-3.521-3.52V6.39c0-1.94 1.58-3.52 3.52-3.52h68.558a3.525 3.525 0 0 1 3.522 3.52v15.909z" fill="#42DFF4"/></svg>
